icons/circle/48/steam_icon_225140.svg

<svg viewBox="0 0 48 48" xmlns="http://www.w3.org/2000/svg">
 <defs>
  <linearGradient id="linearGradient3764" x1="1" x2="47" gradientTransform="matrix(0 -1 1 0 -1.5e-6 48)" gradientUnits="userSpaceOnUse">
   <stop style="stop-color:#3a3a3a" offset="0"/>
   <stop style="stop-color:#444" offset="1"/>
  </linearGradient>
 </defs>
 <path d="m36.31 5c5.859 4.062 9.688 10.831 9.688 18.5 0 12.426-10.07 22.5-22.5 22.5-7.669 0-14.438-3.828-18.5-9.688 1.037 1.822 2.306 3.499 3.781 4.969 4.085 3.712 9.514 5.969 15.469 5.969 12.703 0 23-10.298 23-23 0-5.954-2.256-11.384-5.969-15.469-1.469-1.475-3.147-2.744-4.969-3.781zm4.969 3.781c3.854 4.113 6.219 9.637 6.219 15.719 0 12.703-10.297 23-23 23-6.081 0-11.606-2.364-15.719-6.219 4.16 4.144 9.883 6.719 16.219 6.719 12.703 0 23-10.298 23-23 0-6.335-2.575-12.06-6.719-16.219z" style="opacity:.05"/>
 <path d="m41.28 8.781c3.712 4.085 5.969 9.514 5.969 15.469 0 12.703-10.297 23-23 23-5.954 0-11.384-2.256-15.469-5.969 4.113 3.854 9.637 6.219 15.719 6.219 12.703 0 23-10.298 23-23 0-6.081-2.364-11.606-6.219-15.719z" style="opacity:.1"/>
 <path d="m31.25 2.375c8.615 3.154 14.75 11.417 14.75 21.13 0 12.426-10.07 22.5-22.5 22.5-9.708 0-17.971-6.135-21.12-14.75a23 23 0 0 0 44.875-7 23 23 0 0 0-16-21.875z" style="opacity:.2"/>
 <path d="m24 1c12.703 0 23 10.297 23 23s-10.297 23-23 23-23-10.297-23-23 10.297-23 23-23z" style="fill:url(#linearGradient3764)"/>
 <path d="m40.03 7.531c3.712 4.084 5.969 9.514 5.969 15.469 0 12.703-10.297 23-23 23-5.954 0-11.384-2.256-15.469-5.969 4.178 4.291 10.01 6.969 16.469 6.969 12.703 0 23-10.298 23-23 0-6.462-2.677-12.291-6.969-16.469z" style="opacity:.1"/>
 <g transform="matrix(.11744 0 0 .11744 34.076 46.162)" style="opacity:.1">
  <circle cx="-77.29" cy="-180.2" r="127.73" style="color-rendering:auto;fill-rule:evenodd;image-rendering:auto;opacity:1;shape-rendering:auto"/>
 </g>
 <g transform="matrix(.11744 0 0 .11744 33.076 45.162)">
  <circle cx="-77.29" cy="-180.2" r="127.73" style="color-rendering:auto;fill-rule:evenodd;fill:#d9d941;image-rendering:auto;shape-rendering:auto"/>
 </g>
 <path d="m17.5 12.742a13 13 0 0 0-6.5 11.258h9a4 4 0 0 0 2 3.461l-4.5 7.799a13 13 0 0 0 13 0l-4.502-7.801a4 4 0 0 0 2.002-3.459h9a13 13 0 0 0-6.5-11.258l-4.502 7.797a4 4 0 0 0-1.998-0.539 4 4 0 0 0-2 0.541l-4.5-7.799zm6.5 9.258a2 2 0 0 1 2 2 2 2 0 0 1-2 2 2 2 0 0 1-2-2 2 2 0 0 1 2-2z" solid-color="#000000" style="color-rendering:auto;fill-rule:evenodd;fill:#282828;image-rendering:auto;shape-rendering:auto" isolation="auto" mix-blend-mode="normal"/>
</svg>

<svg xmlns="http://www.w3.org/2000/svg" viewBox="0 0 48 48">
 <defs>
  <linearGradient id="linearGradient3764" x1="1" x2="47" gradientUnits="userSpaceOnUse" gradientTransform="matrix(0,-1,1,0,-1.5e-6,47.999998)">
   <stop style="stop-color:#3a3a3a;stop-opacity:1"/>
   <stop offset="1" style="stop-color:#444;stop-opacity:1"/>
  </linearGradient>
 </defs>
 <g>
  <path d="m 36.31 5 c 5.859 4.062 9.688 10.831 9.688 18.5 c 0 12.426 -10.07 22.5 -22.5 22.5 c -7.669 0 -14.438 -3.828 -18.5 -9.688 c 1.037 1.822 2.306 3.499 3.781 4.969 c 4.085 3.712 9.514 5.969 15.469 5.969 c 12.703 0 23 -10.298 23 -23 c 0 -5.954 -2.256 -11.384 -5.969 -15.469 c -1.469 -1.475 -3.147 -2.744 -4.969 -3.781 z m 4.969 3.781 c 3.854 4.113 6.219 9.637 6.219 15.719 c 0 12.703 -10.297 23 -23 23 c -6.081 0 -11.606 -2.364 -15.719 -6.219 c 4.16 4.144 9.883 6.719 16.219 6.719 c 12.703 0 23 -10.298 23 -23 c 0 -6.335 -2.575 -12.06 -6.719 -16.219 z" style="opacity:0.05"/>
  <path d="m 41.28 8.781 c 3.712 4.085 5.969 9.514 5.969 15.469 c 0 12.703 -10.297 23 -23 23 c -5.954 0 -11.384 -2.256 -15.469 -5.969 c 4.113 3.854 9.637 6.219 15.719 6.219 c 12.703 0 23 -10.298 23 -23 c 0 -6.081 -2.364 -11.606 -6.219 -15.719 z" style="opacity:0.1"/>
  <path d="m 31.25 2.375 c 8.615 3.154 14.75 11.417 14.75 21.13 c 0 12.426 -10.07 22.5 -22.5 22.5 c -9.708 0 -17.971 -6.135 -21.12 -14.75 a 23 23 0 0 0 44.875 -7 a 23 23 0 0 0 -16 -21.875 z" style="opacity:0.2"/>
 </g>
 <g>
  <path d="m 24 1 c 12.703 0 23 10.297 23 23 c 0 12.703 -10.297 23 -23 23 -12.703 0 -23 -10.297 -23 -23 0 -12.703 10.297 -23 23 -23 z" style="fill:url(#linearGradient3764);fill-opacity:1"/>
 </g>
 <g>
  <path d="m 40.03 7.531 c 3.712 4.084 5.969 9.514 5.969 15.469 0 12.703 -10.297 23 -23 23 c -5.954 0 -11.384 -2.256 -15.469 -5.969 4.178 4.291 10.01 6.969 16.469 6.969 c 12.703 0 23 -10.298 23 -23 0 -6.462 -2.677 -12.291 -6.969 -16.469 z" style="opacity:0.1"/>
 </g>
 <g transform="matrix(0.11743631,0,0,0.11743631,34.076433,46.16242)" style="fill:#000;opacity:0.1;fill-opacity:1">
  <circle r="127.73" cy="-180.2" cx="-77.29" style="visibility:visible;shape-rendering:auto;color-interpolation-filters:linearRGB;opacity:1;image-rendering:auto;stroke:none;display:inline;color:#000;fill-rule:evenodd;color-rendering:auto;color-interpolation:sRGB"/>
 </g>
 <g transform="matrix(0.11743631,0,0,0.11743631,33.076433,45.162421)">
  <circle r="127.73" cy="-180.2" cx="-77.29" style="visibility:visible;shape-rendering:auto;color-interpolation-filters:linearRGB;fill:#d9d941;opacity:1;image-rendering:auto;fill-opacity:1;stroke:none;display:inline;color:#000;fill-rule:evenodd;color-rendering:auto;color-interpolation:sRGB"/>
 </g>
 <path d="M 17.5 12.742 A 13 13 0 0 0 11 24 L 20 24 A 4 4 0 0 0 22 27.461 L 17.5 35.26 A 13 13 0 0 0 30.5 35.26 L 25.998 27.459 A 4 4 0 0 0 28 24 L 37 24 A 13 13 0 0 0 30.5 12.742 L 25.998 20.539 A 4 4 0 0 0 24 20 A 4 4 0 0 0 22 20.541 L 17.5 12.742 z M 24 22 A 2 2 0 0 1 26 24 A 2 2 0 0 1 24 26 A 2 2 0 0 1 22 24 A 2 2 0 0 1 24 22 z" mix-blend-mode="normal" solid-color="#000000" isolation="auto" solid-opacity="1" style="visibility:visible;shape-rendering:auto;color-interpolation-filters:linearRGB;fill:#282828;opacity:1;image-rendering:auto;fill-opacity:1;stroke:none;display:inline;color:#000;fill-rule:evenodd;color-rendering:auto;color-interpolation:sRGB"/>
</svg>
